packages/foundations/assets/icons/functional/images/arrows/arrow_up_24.svg

<svg width="24" height="24" viewBox="0 0 24 24" fill="none" xmlns="http://www.w3.org/2000/svg">
<g clip-path="url(#clip0_77_489)">
<path fill-rule="evenodd" clip-rule="evenodd" d="M12 20.0028C12.562 20.0028 13 19.5648 13 19.0028V7.40877L17.28 11.6898C17.3726 11.7879 17.4842 11.8662 17.6079 11.92C17.7317 11.9738 17.8651 12.002 18 12.0028C18.437 12.0028 19 11.6278 19 10.9708C19.0004 10.8433 18.9757 10.7171 18.9273 10.5992C18.879 10.4813 18.8078 10.3741 18.718 10.2838L12.718 4.28377C12.5536 4.12265 12.3375 4.02488 12.108 4.00777L12 4.00277C11.75 3.97077 11.485 4.07977 11.28 4.28277L5.28 10.2828C5.10401 10.4691 5.00413 10.7145 5 10.9708C5 11.5338 5.468 12.0028 6 12.0028C6.13476 12.0027 6.26806 11.9749 6.39159 11.921C6.51513 11.8672 6.62624 11.7885 6.718 11.6898L11 7.40877V19.0028C11 19.5648 11.437 20.0028 12 20.0028Z" fill="#1A1C1F"/>
</g>
<defs>
<clipPath id="clip0_77_489">
<rect width="24" height="24" fill="white"/>
</clipPath>
</defs>
</svg>

<svg xmlns="http://www.w3.org/2000/svg" width="24" height="24" fill="none"><g clip-path="url(#a)"><path fill="#1A1C1F" fill-rule="evenodd" d="M12 20.003c.562 0 1-.438 1-1V7.409l4.28 4.28a1 1 0 0 0 .72.314c.437 0 1-.375 1-1.032a.97.97 0 0 0-.282-.687l-6-6a.98.98 0 0 0-.61-.276L12 4.003c-.25-.032-.515.077-.72.28l-6 6a1.03 1.03 0 0 0-.28.688c0 .563.468 1.032 1 1.032a.98.98 0 0 0 .718-.313L11 7.409v11.594c0 .562.437 1 1 1" clip-rule="evenodd"/></g><defs><clipPath id="a"><path fill="#fff" d="M0 0h24v24H0z"/></clipPath></defs></svg>
